src/platform/cursors/svg/cell.svg

<?xml version="1.0" encoding="UTF-8" standalone="no"?>
<svg
   xmlns:dc="http://purl.org/dc/elements/1.1/"
   xmlns:cc="http://creativecommons.org/ns#"
   xmlns:rdf="http://www.w3.org/1999/02/22-rdf-syntax-ns#"
   xmlns:svg="http://www.w3.org/2000/svg"
   xmlns="http://www.w3.org/2000/svg"
   xmlns:sodipodi="http://sodipodi.sourceforge.net/DTD/sodipodi-0.dtd"
   xmlns:inkscape="http://www.inkscape.org/namespaces/inkscape"
   width="32"
   height="32"
   version="1.1"
   viewBox="0 0 32 32"
   id="svg19"
   sodipodi:docname="cell.svg"
   inkscape:version="1.0.1 (3bc2e813f5, 2020-09-07)">
  <metadata
     id="metadata23">
    <rdf:RDF>
      <cc:Work
         rdf:about="">
        <dc:format>image/svg+xml</dc:format>
        <dc:type
           rdf:resource="http://purl.org/dc/dcmitype/StillImage" />
        <dc:title></dc:title>
      </cc:Work>
    </rdf:RDF>
  </metadata>
  <sodipodi:namedview
     pagecolor="#ffffff"
     bordercolor="#666666"
     borderopacity="1"
     objecttolerance="10"
     gridtolerance="10"
     guidetolerance="10"
     inkscape:pageopacity="0"
     inkscape:pageshadow="2"
     inkscape:window-width="1920"
     inkscape:window-height="932"
     id="namedview21"
     showgrid="false"
     inkscape:zoom="16.904271"
     inkscape:cx="19.690963"
     inkscape:cy="21.991569"
     inkscape:window-x="0"
     inkscape:window-y="36"
     inkscape:window-maximized="1"
     inkscape:current-layer="svg19" />
  <defs
     id="defs5">
    <filter
       id="a"
       x="-.24"
       y="-.24"
       width="1.48"
       height="1.48"
       color-interpolation-filters="sRGB">
      <feGaussianBlur
         stdDeviation="1.4"
         id="feGaussianBlur2" />
    </filter>
  </defs>
  <path
     id="rect893"
     style="fill:#151515;fill-opacity:1;stroke:none;stroke-width:3;stroke-opacity:1"
     d="M 13 7.9609375 A 1.0001 1.0001 0 0 0 12 8.9609375 L 12 11.960938 L 9 11.960938 A 1.0001 1.0001 0 0 0 8 12.960938 L 8 16.960938 A 1.0001 1.0001 0 0 0 9 17.960938 L 12 17.960938 L 12 20.960938 A 1.0001 1.0001 0 0 0 13 21.960938 L 17 21.960938 A 1.0001 1.0001 0 0 0 18 20.960938 L 18 17.960938 L 21 17.960938 A 1.0001 1.0001 0 0 0 22 16.960938 L 22 12.960938 A 1.0001 1.0001 0 0 0 21 11.960938 L 18 11.960938 L 18 8.9609375 A 1.0001 1.0001 0 0 0 17 7.9609375 L 13 7.9609375 z M 14 9.9609375 L 16 9.9609375 L 16 12.960938 A 1.0001 1.0001 0 0 0 17 13.960938 L 20 13.960938 L 20 15.960938 L 17 15.960938 A 1.0001 1.0001 0 0 0 16 16.960938 L 16 19.960938 L 14 19.960938 L 14 16.960938 A 1.0001 1.0001 0 0 0 13 15.960938 L 10 15.960938 L 10 13.960938 L 13 13.960938 A 1.0001 1.0001 0 0 0 14 12.960938 L 14 9.9609375 z " />
  <g
     transform="translate(0 -1020.4)"
     id="g17">
    <g
       transform="translate(-315.06 61.33)"
       id="g15">
      <g
         transform="translate(197.06 802.03)"
         id="g13">
        <path
           d="m131 166v4h-4v6h4v4h6v-4h4v-6h-4v-4z"
           color="#000000"
           color-rendering="auto"
           filter="url(#a)"
           image-rendering="auto"
           opacity=".35"
           shape-rendering="auto"
           solid-color="#000000"
           style="isolation:auto;mix-blend-mode:normal;text-decoration-color:#000000;text-decoration-line:none;text-decoration-style:solid;text-indent:0;text-transform:none;white-space:normal"
           id="path7" />
      </g>
    </g>
  </g>
  <path
     id="rect889"
     style="fill:#ffffff;fill-opacity:1;stroke:none;stroke-width:3;stroke-opacity:1"
     d="M 13 8.9609375 L 13 12.960938 L 9 12.960938 L 9 16.960938 L 13 16.960938 L 13 20.960938 L 17 20.960938 L 17 16.960938 L 21 16.960938 L 21 12.960938 L 17 12.960938 L 17 8.9609375 L 13 8.9609375 z " />
</svg>

<svg xmlns="http://www.w3.org/2000/svg" width="32" height="32"><defs><filter id="a" x="-.24" y="-.24" width="1.48" height="1.48" color-interpolation-filters="sRGB"><feGaussianBlur stdDeviation="1.4"/></filter></defs><path style="fill:#151515;fill-opacity:1;stroke:none;stroke-width:3;stroke-opacity:1" d="M13 7.9609375a1.0001 1.0001 0 0 0-1 1v3.0000005H9a1.0001 1.0001 0 0 0-1 1v4a1.0001 1.0001 0 0 0 1 1h3v3a1.0001 1.0001 0 0 0 1 1h4a1.0001 1.0001 0 0 0 1-1v-3h3a1.0001 1.0001 0 0 0 1-1v-4a1.0001 1.0001 0 0 0-1-1h-3V8.9609375a1.0001 1.0001 0 0 0-1-1h-4zm1 2h2v3.0000005a1.0001 1.0001 0 0 0 1 1h3v2h-3a1.0001 1.0001 0 0 0-1 1v3h-2v-3a1.0001 1.0001 0 0 0-1-1h-3v-2h3a1.0001 1.0001 0 0 0 1-1V9.9609375z"/><path d="M131 166v4h-4v6h4v4h6v-4h4v-6h-4v-4z" color="#000" filter="url(#a)" opacity=".35" style="isolation:auto;mix-blend-mode:normal;text-decoration-color:#000;text-decoration-line:none;text-decoration-style:solid;text-indent:0;text-transform:none;white-space:normal" transform="translate(-118 -157.04)"/><path style="fill:#fff;fill-opacity:1;stroke:none;stroke-width:3;stroke-opacity:1" d="M13 8.9609375v4.0000005H9v4h4v4h4v-4h4v-4h-4V8.9609375h-4z"/></svg>
